src/img/workflow-design.svg

<svg width="38" height="38" viewBox="0 0 38 38" fill="none" xmlns="http://www.w3.org/2000/svg">
<path d="M13.3153 29.1012L19.3559 25.5129L35 6.91871L31.1176 3L12.6958 18.7905L9.14032 24.8885C7.77752 24.7435 6.36378 25.1957 5.3215 26.2477C3.90676 27.6757 4.21422 29.2278 4.43874 30.3611C4.67176 31.5372 4.75764 32.187 3.99139 32.9604L3 33.9611L4.29492 34.5036C7.00514 35.5471 10.1183 34.9052 11.9678 32.9562C13.0101 31.9041 13.4589 30.4769 13.3153 29.1012V29.1012ZM10.7949 25.7823L13.6171 20.9421L17.2242 24.583L12.4288 27.4316L10.7949 25.7823ZM32.4519 7.02344L18.6876 23.3833L14.8057 19.4651L31.0139 5.57199L32.4519 7.02344ZM6.18089 33.0509C6.66255 31.9334 6.44716 30.8464 6.27752 29.99C6.05113 28.8472 5.97231 28.2676 6.64749 27.5861C7.32692 26.9003 8.26912 26.6382 9.14994 26.7986L11.422 29.092C11.5809 29.981 11.3213 30.9321 10.6419 31.6178C9.12757 33.1463 7.33073 33.2182 6.18089 33.0509Z" fill="#203CA7"/>
</svg>

<svg width="38" height="38" fill="none" xmlns="http://www.w3.org/2000/svg"><path d="m13.315 29.101 6.04-3.588L35 6.919 31.118 3 12.696 18.79l-3.556 6.1a4.664 4.664 0 0 0-3.819 1.359c-1.414 1.428-1.107 2.98-.882 4.113.233 1.176.319 1.826-.448 2.6l-.991 1 1.295.543c2.71 1.043 5.823.401 7.673-1.548a4.762 4.762 0 0 0 1.347-3.855Zm-2.52-3.319 2.822-4.84 3.607 3.641-4.795 2.849-1.634-1.65ZM32.452 7.023l-13.764 16.36-3.882-3.918L31.014 5.572l1.438 1.451ZM6.18 33.051c.482-1.118.266-2.205.097-3.061-.227-1.143-.306-1.722.37-2.404A2.806 2.806 0 0 1 9.15 26.8l2.272 2.293c.159.889-.1 1.84-.78 2.526-1.514 1.528-3.311 1.6-4.461 1.433Z" fill="#203CA7"/></svg>
